src/images/svg/basket.svg

<svg width="34" height="35" viewBox="0 0 34 35" fill="none" xmlns="http://www.w3.org/2000/svg">
<circle cx="17" cy="17.8789" r="16.5" stroke="#333333"/>
<path d="M20.9232 14.0188V12.4492C20.9232 11.9601 20.8217 11.4757 20.6245 11.0238C20.4274 10.572 20.1384 10.1614 19.7741 9.81551C19.4098 9.46965 18.9773 9.1953 18.5014 9.00813C18.0254 8.82095 17.5153 8.72461 17.0001 8.72461C16.4849 8.72461 15.9748 8.82095 15.4988 9.00813C15.0228 9.1953 14.5903 9.46965 14.2261 9.81551C13.8618 10.1614 13.5728 10.572 13.3756 11.0238C13.1785 11.4757 13.077 11.9601 13.077 12.4492V16.1737C13.077 16.3149 13.1361 16.4502 13.2412 16.55C13.3463 16.6498 13.4888 16.7058 13.6374 16.7058C13.7861 16.7058 13.9286 16.6498 14.0337 16.55C14.1388 16.4502 14.1979 16.3149 14.1979 16.1737V15.083H18.6814V14.0188H14.1979V12.4492C14.1979 11.7436 14.4931 11.0669 15.0186 10.568C15.5441 10.0691 16.2569 9.78877 17.0001 9.78877C17.7433 9.78877 18.456 10.0691 18.9815 10.568C19.5071 11.0669 19.8023 11.7436 19.8023 12.4492V16.1471C19.8023 16.2883 19.8613 16.4236 19.9664 16.5234C20.0715 16.6232 20.2141 16.6792 20.3627 16.6792C20.5114 16.6792 20.6539 16.6232 20.759 16.5234C20.8641 16.4236 20.9232 16.2883 20.9232 16.1471V15.083H23.7254V24.6604H10.2748V15.083H11.9561V14.0188H9.15393V24.7083C9.15393 24.9779 9.26671 25.2364 9.46746 25.427C9.6682 25.6175 9.94047 25.7246 10.2244 25.7246H23.7758C24.0597 25.7246 24.332 25.6175 24.5327 25.427C24.7335 25.2364 24.8462 24.9779 24.8462 24.7083V14.0188H20.9232Z" fill="#333333"/>
</svg>

<svg width="34" height="35" fill="none" xmlns="http://www.w3.org/2000/svg"><circle cx="17" cy="17.88" r="16.5" stroke="#333"/><path d="M20.92 14.02v-1.57a3.56 3.56 0 0 0-1.15-2.63A3.94 3.94 0 0 0 17 8.72a4.1 4.1 0 0 0-2.77 1.1 3.72 3.72 0 0 0-1.15 2.63v3.72c0 .14.06.28.16.38.1.1.25.16.4.16.15 0 .29-.06.4-.16.1-.1.16-.24.16-.38v-1.09h4.48v-1.06H14.2v-1.57c0-.7.3-1.38.82-1.88s1.24-.78 1.98-.78 1.46.28 1.98.78c.53.5.82 1.17.82 1.88v3.7c0 .14.06.27.17.37.1.1.24.16.4.16.14 0 .28-.06.39-.16.1-.1.16-.23.16-.37v-1.07h2.8v9.58H10.28v-9.58h1.69v-1.06h-2.8V24.7a1 1 0 0 0 .3.72c.2.19.48.3.76.3h13.56c.28 0 .55-.11.75-.3a1 1 0 0 0 .32-.72V14h-3.93Z" fill="#333"/></svg>
